pro/src/icons/stroke-mail.svg

<svg width="48" height="48" viewBox="0 0 48 48" fill="none" xmlns="http://www.w3.org/2000/svg">
<path id="icon" fill-rule="evenodd" clip-rule="evenodd" d="M7 7.78503C5.39826 7.78503 4 9.17964 4 11.035V36.535C4 36.674 4.00785 36.8104 4.02304 36.9439L16.3541 23.8812L6.45082 15.8622C6.0216 15.5147 5.95539 14.885 6.30295 14.4558C6.6505 14.0266 7.28019 13.9604 7.70941 14.3079L21.4815 25.4596C22.9438 26.6502 25.0464 26.6502 26.5087 25.4596L26.5111 25.4577L44 11.3079V11.035C44 9.17964 42.6017 7.78503 41 7.78503H36.84C36.2877 7.78503 35.84 7.33732 35.84 6.78503C35.84 6.23275 36.2877 5.78503 36.84 5.78503H41C43.8183 5.78503 46 8.19043 46 11.035V11.7674L46.0001 11.7868L46 11.8015V36.535C46 39.3796 43.8183 41.785 41 41.785H7C4.18174 41.785 2 39.3796 2 36.535V11.035C2 8.19043 4.18174 5.78503 7 5.78503H28.78C29.3323 5.78503 29.78 6.23275 29.78 6.78503C29.78 7.33732 29.3323 7.78503 28.78 7.78503H7ZM17.9129 25.1434L4.93427 38.8921C5.48067 39.4509 6.21596 39.785 7 39.785H41C41.784 39.785 42.5193 39.4509 43.0657 38.8921L37.7527 33.2614C37.3736 32.8597 37.392 32.2268 37.7937 31.8478C38.1954 31.4687 38.8283 31.4871 39.2073 31.8888L43.977 36.9436C43.9922 36.8103 44 36.6739 44 36.535V13.8805L31.6426 23.8785L36.5671 29.0988C36.9461 29.5006 36.9276 30.1335 36.5259 30.5125C36.1241 30.8914 35.4912 30.873 35.1123 30.4712L30.0833 25.1401L27.7715 27.0105L27.7704 27.0114C25.5731 28.7996 22.4171 28.7996 20.2198 27.0114L20.2187 27.0105L17.9129 25.1434Z" fill="currentColor"/>
</svg>

<svg xmlns="http://www.w3.org/2000/svg" width="48" height="48" fill="none"><path id="icon" fill="currentColor" fill-rule="evenodd" d="M7 7.785c-1.602 0-3 1.395-3 3.25v25.5q0 .208.023.409L16.354 23.88l-9.903-8.019a1 1 0 1 1 1.258-1.554L21.482 25.46a3.984 3.984 0 0 0 5.027 0l.002-.002L44 11.308v-.273c0-1.855-1.398-3.25-3-3.25h-4.16a1 1 0 1 1 0-2H41c2.818 0 5 2.405 5 5.25v25.5c0 2.845-2.182 5.25-5 5.25H7c-2.818 0-5-2.405-5-5.25v-25.5c0-2.845 2.182-5.25 5-5.25h21.78a1 1 0 1 1 0 2zm10.913 17.358L4.934 38.893A2.9 2.9 0 0 0 7 39.784h34c.784 0 1.52-.334 2.066-.893l-5.313-5.63a1 1 0 1 1 1.454-1.373l4.77 5.055q.023-.2.023-.409V13.881l-12.357 9.997 4.924 5.22a1 1 0 0 1-1.455 1.373l-5.029-5.33-2.311 1.87h-.002a5.984 5.984 0 0 1-7.55 0h-.001z" clip-rule="evenodd"/></svg>
